X: 1
T: Border Crossing
C: Paul S. Cranford
R: reel
O: Cape Breton Island
S: http://www.cranfordpub.com
D: currently unrecorded
B: currently unpublished in book form
Z: psc, (re-formatted,updated 9/17/04)
N:
H: copyrights Cranford Publications, SOCAN
L: 1/8
M: C|
F: http://cranfordpub.com/tunes/abcs/cranford_tunes1-100.abc 2007-05-14 18:53:07 UT
K: C
c2 Ac GcEG|cGAc d2 cd|egec dBcG|AcGE C/C/C CB|
c2 Ac GcEG|cGAc d2 cd|egec dBce|dGAB c2 c||
e|g2 c'a g2 ce|acgc d/d/d ce|gc'eg acgc|dced c2 ce|
gec'a g/g/g ce|acgc d2 eg|agc'a gece|dced c/c/c cB|]
